imgs/CanadaFlag.svg

<svg width="24" height="18" viewBox="0 0 24 18" fill="none" xmlns="http://www.w3.org/2000/svg">
<path d="M0.46875 0.46875H23.5312V17.5313H0.46875V0.46875Z" fill="white" stroke="#F5F2E9"/>
<path d="M1.00098 1H6.00015V17H1.00098V1ZM18.0018 1H23.001V17H18.0051L18.0018 1ZM7.79891 8.69766L7.32851 8.86641L9.49829 10.8879C9.66392 11.4047 9.44197 11.5559 9.29953 11.8301L11.6515 11.5137L11.5952 14.0273L12.0854 14.0133L11.9761 11.5172L14.3347 11.816C14.189 11.4891 14.0598 11.3168 14.1923 10.7965L16.3587 8.88047L15.9811 8.73281C15.6697 8.47969 16.1136 7.51289 16.1799 6.90117C16.1799 6.90117 14.9177 7.36172 14.8349 7.11914L14.5103 6.46172L13.3608 7.80469C13.2349 7.83633 13.1819 7.78359 13.1521 7.67109L13.6821 4.86562L12.8407 5.36836C12.7712 5.40352 12.7016 5.37539 12.6552 5.2875L11.8436 3.56484L11.0088 5.3543C10.9459 5.41758 10.883 5.42461 10.83 5.38242L10.0283 4.9043L10.5119 7.68516C10.4722 7.79766 10.3794 7.82578 10.2734 7.76602L9.17033 6.44062C9.02789 6.68672 8.93183 7.08398 8.73969 7.17539C8.55087 7.25977 7.91154 7.00664 7.48421 6.9082C7.62996 7.46719 8.0871 8.39531 7.79891 8.70117V8.69766Z" fill="#FF0000"/>
</svg>

<svg width="24" height="18" fill="none" xmlns="http://www.w3.org/2000/svg"><path d="M.469.469H23.53V17.53H.47V.47z" fill="#fff" stroke="#F5F2E9"/><path d="M1.001 1h5v16H1V1zm17 0h5v16h-4.996l-.003-16zM7.8 8.698l-.47.168 2.17 2.022c.165.517-.057.668-.2.942l2.353-.316-.057 2.513.49-.014-.109-2.496 2.359.299c-.146-.327-.275-.5-.143-1.02L16.36 8.88l-.378-.147c-.311-.253.133-1.22.199-1.832 0 0-1.262.46-1.345.218l-.325-.657-1.15 1.343c-.125.031-.178-.021-.208-.134l.53-2.805-.841.502c-.07.036-.14.007-.186-.08l-.811-1.723-.835 1.79c-.063.063-.126.07-.179.027l-.802-.478.484 2.781c-.04.113-.133.14-.239.081L9.17 6.441c-.142.246-.238.643-.43.734-.19.085-.828-.168-1.256-.267.146.56.603 1.487.315 1.793v-.003z" fill="red"/></svg>
